X:1
T:Wie Melodien zieht es mir.
T:Johannes Brahms
T:Copyright © 2009 by the Choral Public Domain Library (http://www.cpdl.org) Edition may be freely distributed, duplicated, performed, or recorded.
T:Wie Melodien zieht es mir.
T:Copyright © 2009 by the Choral Public Domain Library (http://www.cpdl.org) Edition may be freely distributed, duplicated, performed, or recorded.
T:Copyright © 2009 by the Choral Public Domain Library (http://www.cpdl.org) Edition may be freely distributed, duplicated, performed, or recorded.
T:Copyright © 2009 by the Choral Public Domain Library (http://www.cpdl.org) Edition may be freely distributed, duplicated, performed, or recorded.
T:Copyright © 2009 by the Choral Public Domain Library (http://www.cpdl.org) Edition may be freely distributed, duplicated, performed, or recorded.
C:Johannes Brahms
Z:Copyright © 2009 by the Choral Public Domain Library (http://www.cpdl.org)
Z:Edition may be freely distributed, duplicated, performed, or recorded.
%%score 1 { ( 2 4 ) | ( 3 5 ) }
L:1/8
M:2/2
K:A
V:1 treble nm="P1"
V:2 treble nm="P2"
V:4 treble 
V:3 bass 
V:5 bass 
V:1
"^Zart." z2 C2 E2 A2 | (d2 c2) (B2 A2) | G4 F2 A2 | =F3 =G F3 G | E4 z2 c2 | B3 ^F ^G3 E | %6
w: Wie Me- lo-|di- * en _|zieht es mir|lei- se durch den|Sinn, wie|Früh- lings- blu- men|
 B4 A2 e2 | ^d3 c B3 ^^F | G4 z4 | z4 z2 ^B2 | ^d3 c A3 ^D | E4 z4 | z8 | z2 C2 E2 A2 | %14
w: blüht es und|schwebt wie Duft da-|hin,|und|schwebt wie Duft da-|hin.||Doch kommt das|
 (d2 c2) (B2 A2) | G4 F2 A2 | =F3 =G F3 G | E4 z2 c2 | B3 A B3 G | A4 E2 A2 | =G3 F G3 ^E | F4 z4 | %22
w: Wort _ und _|fasst es und|führt es vor das|Aug', wie|Ne- bel- grau er-|blasst es und|schwin- det wie ein|Hauch,|
 z4 z2 ^B2 | c3 =B A3 G | F4 z4 | z8 | z8 | z2 C2 E2 A2 | (d2 c2) (B2 A2) | G4 F2 A2 | %30
w: und|schwin- det wie ein|Hauch.|||Und den- noch|ruht _ im _|Rei- me ver-|
 =F3 =G F3 G | E4 z2 c2 | B3 F G3 E | B4 A2 A2 | A3 A =c3 ^G | A4 z4 | z4 z2 A2 | =c3 _B B3 A | %38
w: bor- gen wohl ein|Duft, den|mild aus stil- lem|Kei- me ein|feuch- tes Au- ge|ruft,|den|Mild aus stil- lem|
 A2 =G2 z2 =F2 | =F4 E2 d2 | (^c2 A2) (^F2 D2) | C6 B,2 | A,4 z4 | z8 | z8 | z8 |] %46
w: Kei- me ein|feuch- tes, ein|feuch- * tes _|Au- ge|ruft.||||
V:2
 z[K:bass] (E,EC A,E,[I:staff +1]C,A,,) |[I:staff -1] z (A,AE CA,[I:staff +1]E,C,) | %2
[I:staff -1] x8 | x8 | x3 [A,C][K:treble] z [CE] z [EA] | z ^F,- [F,F]2 z E,- [E,E]2 | %6
 z (E,EC z2 ([ce]2) | [B^d]3 [Ac] [GB]3 [^D^^F]) | [EG]2 ([eg]4 [^df]2- | [df]2 [ce]4 [G^B]2) | %10
 ([=B^d]3 [Ac] [FA]3 [A,^D]) |!<(! z E(=dB GE[I:staff +1]DB,!<)! | %12
!>(![I:staff -1] (f)dB!>)!G[K:bass] FDB,G, | F,E,EC A,E,[I:staff +1]C,A,,) | %14
[I:staff -1] z (A,AE CA,[I:staff +1]E,C,) |[I:staff -1] x8 | z8 | z2 [A,C] z [CE] z [EA] z | %18
 z F,- [F,F]2 z =F,- [F,=F]2 |"^dim." z (E,EC A,E,[I:staff +1]C,A,,) | %20
[I:staff -1] z D,- [D,D]2 z C,- [C,C]2 | z2 ([df]4 [ce]2- | [ce]2 [Bd]4 [A^B]2) | %23
 z (c2 =B) z (A2 G) | x x x x x x x2 | z Aa=f edA=F |!>(! ED[K:bass]A,=F, E,D,F,!>)!A, | %27
 C2 x2 x2 x2 | z (A,AE CA,[I:staff +1]E,C,) |[I:staff -1] z8 | z8 | %31
 x3 [A,C][K:treble] z [CE] z [EA] | z F,- [F,F]2 z E,- [E,E]2 | z (E,EC A,=F,=FC | %34
"^dim." A,=F,!>(!=FA,) z (E,E!>)!_B,) | z2 ([=fa]4 [e=g]2- | [eg]2 [d=f]4 [=c_e]2-) | %37
 [ce]2 [_Bd]4 [A=c]2- | [Ac]2 [=G_B]4 [=F^G]2- | ([FG-]4 [EG]2) x2 | x8 | z8 | x8 | ACcA EA,AF | %44
 x8 | x8 |] %46
V:3
!p!"^sempre dolce" [A,,,A,,]4 z2 x x | C,,4 z2 x2 | %2
 D,,A,,D,[I:staff -1][F,A,][I:staff +1] D,,D,F,[I:staff -1][A,D] | %3
[I:staff +1] D,,_B,,D,[I:staff -1][=F,_B,][I:staff +1] D,,D,F,[I:staff -1][B,D] | %4
[I:staff +1] A,,,A,,E, z A, z C, z | D,,3 D, D,,3 D, | C,,4 A,E,C,A,, | B,,,B,,^D, z z B,,A, z | %8
 E,,E,G,B, ^B, G,2 E, | E,,E,G,C =D G,2 E, | A,,,A,,C,F, z B,,,B,,F, | E,,E,G, z z2 x2 | %12
 E,2 z2 z4 | A,,,2 A,,2 z2 x2 | C,,4 z2 x2 | %15
 D,,A,,D,[I:staff -1][F,A,][I:staff +1] D,,D,F,[I:staff -1][A,D] | %16
[I:staff +1] D,,D,[I:staff -1][=F,_B,][I:staff +1] z D,,D,[I:staff -1][^G,=B,][I:staff +1] z | %17
 A,,,A,, z E, z A, z C, | D,,3 D, D,,3 D, | C,,6 x2 | B,,,3 B,, A,,,3 A,, | D,,D,F,A, ^A, F,2 D, | %22
 D,,D,F,B, ^B, F,2 D, | C,,C,DC, CC,B,C, |!<(! z A,[I:staff -1]AF[I:staff +1] CA,F,C, | %25
 A,,=F,,D,=F, A, z!<)! z2 | z4 z2 [D,,A,,-]2 | [A,,,A,,]4 z2 x2 | C,,4 z2 x2 | %29
 D,,A,,D,[I:staff -1][F,A,][I:staff +1] D,,D,F,[I:staff -1][A,D] | %30
[I:staff +1] D,,_B,,D,[I:staff -1][=F,_B,][I:staff +1] D,,D,F,[I:staff -1][B,D] | %31
[I:staff +1] A,,,A,,E, z A, z C, z | D,,3 D, D,,3 D, | C,,4- C,,C, C,,2- | C,,=C, =C,,3 C, C,,2 | %35
 =F,,=F,A,=C ^C A,2 F, | =F,,=F,A,D _E A,2 F, | _B,,,_B,,D,=F, ^F, D,2 B,, | %38
 _B,,,_B,,D,=G, ^G, D,2 B,, | =B,,,=B,,D,G, B,,D,[I:staff -1]G,B, | %40
[I:staff +1] z E,A,[I:staff -1]E[I:staff +1] z F,B,[I:staff -1]D |[I:staff +1] z E,A,C z D,G,B, | %42
 z C,E,A, C[I:staff -1]Eec |[I:staff +1] z2 [A,,E,]2 z2 [F,,D,]2- | %44
"^rit."[I:staff -1] ED[I:staff +1]A,F, E,D,F,A, | !fermata![A,,,E,,A,,C,E,C]8 |] %46
V:4
 x[K:bass] x7 | x8 | x8 | x8 | x4[K:treble] x4 | x8 | x8 | x8 | x8 | x8 | x8 | z4 x2 z G | %12
 x4[K:bass] x4 | x8 | x8 | x8 | x8 | x8 | x8 | x8 | x8 | x8 | x8 | x (A F2) z (F ^E2) | x8 | x8 | %26
 x2[K:bass] x6 | z (E,EC A,E,[I:staff +1]C,A,,) | x8 | x8 | x8 | x4[I:staff -1][K:treble] x4 | x8 | %33
 x8 | x8 | x8 | x8 | x8 | x8 | x8 | x8 | x8 | x8 | x8 | x8 | x8 |] %46
V:5
 x8 | x8 | x8 | x8 | x8 | x8 | x8 | x8 | x8 | x8 | x8 | x8 | x8 | x8 | x8 | x8 | x8 | x8 | x8 | %19
 x8 | x8 | x8 | x8 | x8 | F,,2 z2 z2 x2 | x8 | x8 | x8 | x8 | x8 | x8 | x8 | x8 | x8 | x8 | x8 | %36
 x8 | x8 | x8 | B,,,2 x2 x4 | ^C,,4 D,,4 | E,,4- [E,,,E,,]4 | A,,,4 z2 [E,A,C]2 | x8 | %44
 [F,,D,]4 z2 [D,,A,,]2 | x8 |] %46

